X: 6485
T: Cat In The Hopper, The
R: jig
M: 6/8
K: Gminor
C|:DGA B2 c/B/|AFF F3|g3 g2 a/g/|fdd d2=e|
fFf eEe|dDd cBc|fgf d2 {e}d/c/|1 BG^F G2C:|2 BG^F G2G||
|:DGB BAG|FAB cBA|Bdg g^fg|fdd d2c|
dd'd' cc'c'|Bbb Aaa|agf ed B/A/|1 BG^F G2G:|2 BG^F G2C||

